!!!!SEGMENT: pl-wtm--r-596-m_moniuszko-stanislaw--fedra-piosnka-rybaka.krn
!!!cenid: 18xx:3014
!!!COM: Moniuszko, Stanisław
!!!COM-rismID: pe30008351
!!!CDT: 1819/05/05-1872/06/04
!!!CNT: Polish
!!!GTL: Fedra
!!!OTL: Piosnka Rybaka
!!!PDT: 1865
!!!AGN: Secular
!!!SMS-siglum: PL-Wtm
!!!SMS-shelfmark: R 596/M
!!!SMS-shelfwork: G
!!!SMS-variant:
!!!SMS-altvar:
!!!NIFC-rismSourceID: 1001090341
!!!NIFC-islandoraID:
!!!URL-pdf-islandora:
!!!URL-scan:
!!!ONB-nifc:
!!!AIN: 2 piano 1 vox
!!!key: a
**kern	**dynam	**kern	**dynam	**kern	**text	**dynam
*part3	*part3	*part2	*part2	*part1	*part1	*part1
*staff3	*	*staff2	*	*staff1	*staff1	*
*I"Piano	*	*I"Piano	*	*I"[Voice]	*	*
*I'pf	*	*I'pf	*	*I'V	*	*
*I'pf	*	*I'pf	*	*I'V	*	*
*ICklav	*	*ICklav	*	*ICvox	*	*
*Ipiano	*	*Ipiano	*	*Ivox	*	*
*clefF4	*	*clefG2	*	*clefG2	*	*
*k[]	*	*k[]	*	*k[]	*	*
*a:	*	*a:	*	*a:	*	*
*M6/8	*	*M6/8	*	*M6/8	*	*
=1	=1	=1	=1	=1	=1	=1
!!LO:TX:t=P:problem: w źródle oba głosy połączone jedną akoladą	!	!	!	!	!
!LO:TX:t=P:problem: all\right	!	!	!	!	!	!
!	!	!	!	!LO:TX:a:t=Andantino.	!	!
!	!	!	!	!LO:TX:a:t=N|o 1.	!	!
!	!	!LO:TX:t=P:problem: w t. 1-3 pod 32 łuki dopisane niebieską kredką	!	!	!	!
2.r	.	32d/LLL	.	2.r	.	.
.	.	32e/	.	.	.	.
.	.	32f/	.	.	.	.
.	.	32g/JJJ	.	.	.	.
.	.	4a;/	.	.	.	.
.	.	32g/LLL	.	.	.	.
.	.	32a/	.	.	.	.
.	.	32b/	.	.	.	.
.	.	32cc/JJJ	.	.	.	.
.	.	4dd;\	.	.	.	.
=2	=2	=2	=2	=2	=2	=2
2.r	.	32d/LLL	.	2.r	.	.
.	.	32e/	.	.	.	.
.	.	32f/	.	.	.	.
.	.	32g/JJJ	.	.	.	.
.	.	4a;/	.	.	.	.
.	.	32b\LLL	.	.	.	.
.	.	32cc\	.	.	.	.
.	.	32dd\	.	.	.	.
.	.	32ee\JJJ	.	.	.	.
.	.	4ff;\	.	.	.	.
=3!|:	=3!|:	=3!|:	=3!|:	=3!|:	=3!|:	=3!|:
4.D\	.	16d/LL 16f	.	16d/LL	Płyń	.
.	.	16A/	.	16e/JJ	.	.
.	.	16d/ 16f	.	16f/	ryb-	.
!	!	!	!	!LO:TX:t=P:problem: skreślona czerwoną kredką nuta 16d	!	!
.	.	16A/	.	16g/	-ko	.
.	.	16d/ 16f	.	[4a/	w dal	.
.	.	16A/JJ	.	.	.	.
!LO:TX:a:t=P:problem:mixed beam	!	!	!	!	!	!
16AA/LL	.	32a/LLL	.	.	.	.
.	.	32b/	.	.	.	.
16A\	.	32cc/	.	.	.	.
.	.	32dd/JJJ	.	.	.	.
!	!	!	!	!LO:TX:t=P:problem:nad taktem niebieską kredką dopisane 100 b)	!	!
!	!	!	!	!LO:N:vis=4	!	!
16c>\ 16e>	.	4ee/	.	8a/]	.	.
16A\	.	.	.	.	.	.
16c>\ 16e>	.	.	.	8r	.	.
16A\JJ	.	.	.	.	.	.
=4	=4	=4	=4	=4	=4	=4
!	!	!LO:TX:t=P:problem: takt 4 zapisany repetycją	!	!	!	!
4.D\yy	.	16d/LLyy 16fyy	.	16d/LL	po	.
.	.	16A/yy 16cyy	.	16e/JJ	.	.
.	.	16d/yy 16fyy	.	16f/	grzbie-	.
.	.	16A/yy 16cyy	.	16g/	-cie	.
!	!	!	!	!LO:N:vis=4	!	!
.	.	16d/yy 16fyy	.	[8a/	fal	.
.	.	16A/JJyy 16cyy	.	.	.	.
!yLO:TX:a:t=P:problem:mixed beam	!	!	!	!	!	!
16AA/LLyy	.	32a/LLLyy	.	8a/]	.	.
.	.	32b/yy	.	.	.	.
16A\yy	.	32cc/yy	.	.	.	.
.	.	32dd/JJJyy	.	.	.	.
16c>\yy 16e>yy	.	4ee/yy	.	8r	.	.
16A\yy	.	.	.	.	.	.
16c>\yy 16e>yy	.	.	.	8a/	po-	.
16A\JJyy	.	.	.	.	.	.
!!LO:LB:g=original	!	!	!	!	!
=5	=5	=5	=5	=5	=5	=5
*^	*	*	*	*	*	*
!	!	!	!	!	!LO:TX:t=P:problem: all\right	!	!
8D/L	4.D\	.	16d/LL 16f	.	8dd\L	-go-	.
.	.	.	16a/	.	.	.	.
16.A^</L	.	.	16d/ 16f	.	16cc\L	.	.
.	.	.	16a/	.	16b\JJ	.	.
32A/JK	.	.	.	.	.	.	.
8A/J	.	.	16d/ 16f	.	16a\LL	-da	.
.	.	.	16a/JJ	.	16b\JJ	.	.
!	!	!	!LO:N:vis=16.	!	!	!	!
8AA/L	4.AA\	.	16c/LL 16e	.	4cc\	nam	.
.	.	.	16a/yy	.	.	.	.
16.A^</L	.	.	16c/yy 16eyy	.	.	.	.
.	.	.	16a/yy	.	.	.	.
32A/JK	.	.	.	.	.	.	.
8A/J	.	.	16c/yy 16eyy	.	16a/	się	.
!	!	!	!LO:N:vis=16.	!	!	!	!
.	.	.	16a/JJ	.	16a/	u-	.
=6	=6	=6	=6	=6	=6	=6	=6
!	!	!	!	!	!LO:TX:t=P:problem: skreślony czarnym tuszem takt i obramowany prostokątem zapisanym czerwoną kredką. Nad taktem dopisany inny materiał melodyczny	!	!
!	!	!	!LO:N:vis=16.	!	!	!	!
8C/L	4.C\	.	16c/LL 16e	.	8cc\L	-śmie-	.
.	.	.	16g/yy	.	.	.	.
16.G^</L	.	.	16c/yy 16eyy	.	16b\L	.	.
.	.	.	16g/yy	.	16a\JJ	.	.
32G/JK	.	.	.	.	.	.	.
8G/J	.	.	16c/yy 16eyy	.	16g/	-cha!	.
!	!	!	!LO:N:vis=16.	!	!	!	!
.	.	.	16g/JJ	.	16r	.	.
!	!	!	!LO:N:vis=16.	!	!	!	!
8GG/L	4.GG\	.	16B/LL 16d	.	4.b^\	płyń!	.
.	.	.	16g/yy	.	.	.	.
16.G^</L	.	.	16B/yy 16dyy	.	.	.	.
.	.	.	16g/yy	.	.	.	.
32G/JK	.	.	.	.	.	.	.
8G/J	.	.	16B/yy 16dyy	.	.	.	.
!	!	!	!LO:N:vis=16.	!	!	!	!
.	.	.	16g/JJ	.	.	.	.
*v	*v	*	*	*	*	*	*
=7	=7	=7	=7	=7	=7	=7
4.DD/ 4.D	.	16r	.	8.a/L	Śród	.
.	.	(16A/LL	.	.	.	.
.	.	16d/ 16f	.	.	.	.
.	.	16A/	.	16g/Jk	.	.
.	.	16d/ 16f	.	16f/	lu-	.
.	.	16A/JJ)	.	16e/	-bych	.
!LO:TX:t=P:problem: mixed beam	!	!	!	!	!	!
16GG`</LL	.	(32g/LLL	.	4d/	pień	.
.	.	32a/	.	.	.	.
(16G\	.	32b/	.	.	.	.
.	.	32cc/JJJ	.	.	.	.
16B\ 16f	.	16dd'/LL)	.	.	.	.
16G\	.	16g'/J	.	.	.	.
16B\ 16f	.	8dd^/J	.	8d/	prze-	.
16G\JJ)	.	.	.	.	.	.
=8	=8	=8	=8	=8	=8	=8
4.D/	.	16r	.	8.a/L	-mi-	.
.	.	(16A/LL	.	.	.	.
.	.	16d/ 16f	.	.	.	.
.	.	16A/	.	16g/Jk	.	.
.	.	.	.	16qqa/LL	.	.
.	.	.	.	16qqg/JJ	.	.
.	.	16d/ 16f	.	16f/LL	-ja	.
.	.	16A/JJ)	.	16e/JJ	.	.
!	!	!LO:TX:t=P:problem: pauza kreślona czerwoną kredką	!	!	!	!
16GG/LL	<	8r	.	8d/	dzień	.
(16G\	.	.	.	.	.	.
16A\ 16c	.	(32b\LLL	.	8r	.	.
.	.	32cc\	.	.	.	.
16G\JJ	.	32dd\	.	.	.	.
.	[	32ee\JJJ	.	.	.	.
!LO:TX:t=P:problem:  nuty obramowane kółkiem dopisanym czerwoną kredką i poniżej dopisane 16r a w górnym systemie 16B i 16g oraz 16d i 16f	!	!	!	!	!	!
16B>\LL 16g>	.	8ff\)	.	[8g/	pio-	.
16d>\JJ 16f>)	.	.	.	.	.	.
!!LO:LB:g=original	!	!	!	!	!	!
=9	=9	=9	=9	=9	=9	=9
!	!	!	!	!	!	!LO:DY:a
!	!	!	!	!LO:TX:t=P:problem: skreślony czarnym tuszem takt i obramowany prostokątem zapisanym czerwoną kredką. Nad taktem dopisany inny materiał melodyczny	!	!
!	!	!	!LO:HP:t=cre_ _ _ _ _ _ _	!	!	!
8CC/L 8C	.	(>16c/LL 16e	<	8g/]	.	<
.	.	16G/	.	.	.	.
.	.	.	.	8qb/	.	.
8C/	.	16c/ 16e	.	16a/LL	-snkę	.
.	.	16G/	.	16g/JJ	.	.
8C/J	.	16A/ 16f	.	16cc\LL	roz-	[
!	!	!LO:TX:t=P:problem: przekreslona główka nuty czerwoną kredką	!	!	!	!
.	.	16B/JJ	.	16dd\JJ	.	.
!	!	!	!	!	!	!LO:DY:b
(<4CC/ 4C	.	16c/LL 16e	sf	4ee\	-no-	f
.	.	16g/	.	.	.	.
.	.	16e/ 16cc	.	.	.	.
.	.	16g/	.	.	.	.
8DD/ 8D	.	16d/ 16f	.	8dd\	-szą	.
.	.	16b/JJ	.	.	.	.
=10	=10	=10	=10	=10	=10	=10
!	!	!	!	!	!	!LO:DY:a
4EE\) 4E	.	16c/LL 16a	>	([4cc\	e-	>
.	.	16e/	.	.	.	.
.	.	16d/ 16f	.	.	.	.
.	.	16A</	.	.	.	.
8EE/	.	16G#X</ 16e	]	16cc\]	.	.
!	!	!	!	!LO:TX:t=P:problem: 16b i 32qqb zapisane jako jedna główka	!	!
.	.	16B</JJ 16d	.	16b\	.	.
.	.	.	.	32qqb/LLL	.	]
.	.	.	.	32qqcc/	.	.
.	.	.	.	32qqb/JJJ	.	.
!LO:TX:t=P:problem: skreslony materiał melodyczny czarnym tuszem i obramowane kółkiem dopisanym czerwoną kredką, poniżej dopisany czarnym tuszem materiał melodyczny	!	!	!	!	!	!
(16AA/LL	.	16A</LL 16c	.	4a/)	-cha	.
16E/	.	16e/	.	.	.	.
16c/	.	16a/	.	.	.	.
16E/	.	16e/	.	.	.	.
16A/JJ)	.	16f/	.	8r	.	.
16r	.	16c/JJ)	.	.	.	.
=11	=11	=11	=11	=11	=11	=11
*^	*	*	*	*	*	*
16DD/	16ryy	.	(32d/LLL	.	2.r	.	.
.	.	.	32e/	.	.	.	.
16A/LL	4A\	.	32f/	.	.	.	.
.	.	.	32g/JJJ)	.	.	.	.
16d>\ 16f>	.	.	4a/	.	.	.	.
16A/	.	.	.	.	.	.	.
16d>\ 16f>	.	.	.	.	.	.	.
16A/JJ	16ryy	.	.	.	.	.	.
16GG/LL	4.ryy	.	(32g/LLL	.	.	.	.
.	.	.	32a/	.	.	.	.
16G\	.	.	32b/	.	.	.	.
.	.	.	32cc/JJJ)	.	.	.	.
!	!	!	!LO:TX:t=P:problem: następne 3 takty przekreślone	!	!	!	!
16B\ 16f>	.	.	4dd/	.	.	.	.
16G\	.	.	.	.	.	.	.
16B\ 16f>	.	.	.	.	.	.	.
16G\JJ	.	.	.	.	.	.	.
!!LO:LB:g=original	!	!	!	!	!	!	!
!!LO:PB:g=original	!	!	!	!	!	!	!
=12	=12	=12	=12	=12	=12	=12	=12
!	!	!	!	!	!	!	!
!	!	!	!	!	!LO:TX:t=P:problem: 3 takty skreslone i obramowane prostokątem namalowanym czerwoną kredką	!	!
!	!	!	!	!	!LO:TX:a:t=1|m|a	!	!
!	!	!	!	!	!LO:TX:t=P:problem: nad 1|m|a łuk łączący t. 12 i 13	!	!
16D/LL	4ryy	.	32d/LLL	.	2.r	.	.
.	.	.	32e/	.	.	.	.
16A/	.	.	32f/	.	.	.	.
.	.	.	32g/JJ	.	.	.	.
16d>\ 16f>	.	.	8a/J	.	.	.	.
16A/	.	.	.	.	.	.	.
16.d/	8F\	.	32b\LLL	.	.	.	.
.	.	.	32cc\	.	.	.	.
.	.	.	32dd\	.	.	.	.
32c/JJk	.	.	32ee\JJJ	.	.	.	.
16B/LL	4G\	.	4ff\	.	.	.	.
16d/	.	.	.	.	.	.	.
16g>\	.	.	.	.	.	.	.
16G/	.	.	.	.	.	.	.
16d>\ 16f>	8ryy	.	8f/ 8b	.	.	.	.
16G/JJ	.	.	.	.	.	.	.
*v	*v	*	*	*	*	*	*
=13	=13	=13	=13	=13	=13	=13
!	!	!	!	!LO:TX:a:t=1|m|a	!	!
(16C\LL	.	4d/ 4cc	.	2.r	.	.
16G\	.	.	.	.	.	.
16c\	.	.	.	.	.	.
16e\JJ)	.	.	.	.	.	.
8D\	.	8d/ 8f 8b	.	.	.	.
!	!	!	!	!	!	!
8E\L	.	4c/ 4e 4a	.	.	.	.
8A\	.	.	.	.	.	.
8AA/J	.	8c#X/ 8e 8g	.	.	.	.
=14||	=14||	=14||	=14||	=14||	=14||	=14||
!	!	!	!	!LO:TX:a:t=2|d|a	!	!
!	!	!	!	!LO:TX:t=P:problem: nad 2|d|a łuk	!	!
16C\LL	.	8.e/L 8.cc	.	2.r	.	.
16G\	.	.	.	.	.	.
16c\	.	.	.	.	.	.
16G\	.	16g/L	.	.	.	.
16C\	.	16e/ 16cc	.	.	.	.
16G\JJ	.	16g/JJ	.	.	.	.
*rep	*	*rep	*	*	*	*
16C\LL	.	8.e/L 8.cc	.	.	.	.
16G\	.	.	.	.	.	.
16c\	.	.	.	.	.	.
16G\	.	16g/L	.	.	.	.
16C\	.	16e/ 16cc	.	.	.	.
[16G\JJ	.	16g/JJ	.	.	.	.
*Xrep	*	*Xrep	*	*	*	*
=15	=15	=15	=15	=15	=15	=15
!LO:TX:t=P:problem: w źródle ligatura widoczna w t. 14 i 15	!	!	!	!	!	!
2.C\ 2.G]	.	2.c/ 2.e	.	2.r	.	.
=16||	=16||	=16||	=16||	=16||	=16||	=16||
!	!	!	!	!LO:TX:a:t=Druga strofa	!	!
2.ryy	.	2.ryy	.	16d/LL	Hej	.
.	.	.	.	16e/JJ	.	.
.	.	.	.	16f/	ryb-	.
.	.	.	.	16g/	-ko	.
.	.	.	.	[8a/	leć	.
.	.	.	.	4a/]	.	.
.	.	.	.	8r	.	.
=17	=17	=17	=17	=17	=17	=17
!	!	!	!	!LO:TX:t=P:problem: w źródle kolejne takty głosu wokalnego zapisane na systemach pod sobą	!	!
2.ryy	.	2.ryy	.	16d/LL	w zdra-	.
.	.	.	.	16e/JJ	.	.
.	.	.	.	16f/	-dli-	.
.	.	.	.	16g/	-wą	.
.	.	.	.	[8a/	sieć.	.
.	.	.	.	8a/]	.	.
.	.	.	.	8r	.	.
.	.	.	.	8a/	Nie	.
=18	=18	=18	=18	=18	=18	=18
2.ryy	.	2.ryy	.	8dd\L	prze-	.
.	.	.	.	16cc\L	.	.
.	.	.	.	16b\JJ	.	.
.	.	.	.	16a/LL	-czu-	.
.	.	.	.	16b/JJ	.	.
.	.	.	.	4cc\	-wa-	.
.	.	.	.	16a\	-jąc	.
.	.	.	.	16a\	za-	.
=19	=19	=19	=19	=19	=19	=19
2.ryy	.	2.ryy	.	(8cc\L	-gła-	.
.	.	.	.	16b\L	.	.
.	.	.	.	16a\JJ)	.	.
.	.	.	.	16g/	-dy,	.
.	.	.	.	16r	.	.
.	.	.	.	4.b^/	leć!	.
=20	=20	=20	=20	=20	=20	=20
2.ryy	.	2.ryy	.	8.a/L	W prze-	.
.	.	.	.	16g/Jk	.	.
.	.	.	.	16f/	-stwo-	.
.	.	.	.	16e/	-rach	.
.	.	.	.	8d/	toń.	.
.	.	.	.	8r	.	.
.	.	.	.	8d/	pio-	.
=21	=21	=21	=21	=21	=21	=21
!	!	!	!	!LO:TX:t=P:problem: tekst zapisany nad pięciolinią	!	!
2.ryy	.	2.ryy	.	8.a/L	-sen-	.
.	.	.	.	16g/Jk	.	.
!	!	!	!	!LO:TX:t=P:problem: grupa 8 i 16 oraz 16qqa i 16qqg zapisana pod jedną belką	!	!
.	.	.	.	16qqa/LL	.	.
.	.	.	.	16qqg/JJ	.	.
.	.	.	.	16f/LL	-ko	.
.	.	.	.	16e/JJ	.	.
.	.	.	.	8d/	dzwoń	.
.	.	.	.	8r	.	.
.	.	.	.	8g/	na	.
=22	=22	=22	=22	=22	=22	=22
2.ryy	.	2.ryy	.	8g/L	cześć	.
.	.	.	.	8qb/	.	.
.	.	.	.	16a/L	.	.
.	.	.	.	16g/JJ	.	.
.	.	.	.	16cc\LL	po-	.
.	.	.	.	16dd\JJ	.	.
.	.	.	.	4ee\	-wab-	.
.	.	.	.	16dd\	-nej	.
.	.	.	.	16a/	Na-	.
=23	=23	=23	=23	=23	=23	=23
!	!	!	!	!	!	!LO:DY:a
2.ryy	.	2.ryy	.	([4cc\	-ja-	>
.	.	.	.	16cc\]	.	.
!	!	!	!	!LO:TX:t=P:problem: 16b i 32qqb zapisane na jednej, wspólnej główce	!	!
.	.	.	.	16b\	.	.
.	.	.	.	32qqb/LLL	.	]
.	.	.	.	32qqcc/	.	.
.	.	.	.	32qqb/JJJ	.	.
.	.	.	.	4a/)	-dy	.
!	!	!	!	!LO:TX:t=P:problem: kolejne takty w źródle przekreślone czerwoną kredką	!	!
.	.	.	.	8r	.	.
==	==	==	==	==	==	==
*-	*-	*-	*-	*-	*-	*-
!!!system-decoration: s1{(s2,s3)}
!!!RDF**kern: > = above
!!!RDF**kern: < = below
!!!ENC: Berenika Jozajtis
!!!END: 2022-04-12
!!!ENC: Natalia Wrzos
!!!END: 2022-06-01
!!!YEC: Copyright 2022 Narodowy Instytut Fryderyka Chopina (https://polishscores.org)
!!!YEM: Licence CC BY 4.0 (https://creativecommons.org/licenses/by/4.0)
